src/assets/icons/star.svg

<svg width="16" height="15" viewBox="0 0 20 20" fill="none" xmlns="http://www.w3.org/2000/svg">
<path fill-rule="evenodd" clip-rule="evenodd" d="M11.4926 6.24731L11.9312 7.33967L13.1057 7.4193L17.1026 7.69032L14.0283 10.2589L13.125 11.0137L13.4122 12.1552L14.3895 16.0403L10.9967 13.9102L9.9997 13.2843L9.00274 13.9102L5.60986 16.0403L6.58723 12.1552L6.87442 11.0137L5.97108 10.2589L2.89679 7.69032L6.89372 7.4193L8.06817 7.33967L8.50683 6.24731L9.9997 2.52975L11.4926 6.24731ZM1.83825 5.88279L6.76688 5.5486L8.60774 0.964464C9.1116 -0.29024 10.8878 -0.290237 11.3917 0.964467L13.2325 5.5486L18.1611 5.88279C19.5101 5.97426 20.059 7.66353 19.0214 8.53045L15.2305 11.6978L16.4357 16.4885C16.7656 17.7997 15.3286 18.8437 14.1835 18.1248L9.9997 15.4982L5.81592 18.1248C4.6708 18.8437 3.23382 17.7997 3.56369 16.4885L4.76889 11.6978L0.977974 8.53045C-0.0596216 7.66353 0.48926 5.97426 1.83825 5.88279Z" fill="currentColor" fill-opacity="0.35"/>
</svg>

<svg width="20" height="20" viewBox="0 0 20 20" fill="none" xmlns="http://www.w3.org/2000/svg"><path fill-rule="evenodd" clip-rule="evenodd" d="m11.493 6.25.438 1.091 1.175.08 3.997.271-3.075 2.569-.903.755.287 1.141.977 3.885-3.392-2.13-.997-.626-.997.626-3.393 2.13.977-3.885.287-1.142-.903-.754-3.074-2.569 3.997-.27 1.174-.08.439-1.093L10 2.532l1.493 3.717zm-9.655-.365 4.929-.335L8.607.966c.505-1.254 2.28-1.254 2.785 0l1.84 4.584 4.93.335c1.348.091 1.897 1.78.86 2.647L15.23 11.7l1.205 4.79c.33 1.312-1.107 2.356-2.252 1.637L10 15.5l-4.184 2.627c-1.145.719-2.582-.325-2.252-1.637l1.205-4.79L.978 8.532c-1.038-.867-.489-2.556.86-2.647z" fill="currentColor" fill-opacity=".5"/></svg>
